icons/octane-filled.svg

<svg width="256" height="256" viewBox="0 0 256 256" fill="none" xmlns="http://www.w3.org/2000/svg">
<rect width="256" height="256" rx="60" fill="#DC2626" />
<path d="M129.159 212C124.515 212 119.87 211.336 115.222 209.674L81.7082 196.726C72.7487 193.406 64.7865 186.103 60.8055 176.808L46.2081 144.267C42.223 135.302 41.8933 125.009 45.5406 115.38L58.1514 82.1798C62.1325 72.2169 69.1014 64.9137 78.3906 60.9301L110.577 46.3237C115.222 44.3279 120.2 43 125.842 43C130.487 43 135.131 43.6639 139.776 45.3258L173.289 57.9404C182.578 61.26 190.215 68.5633 194.196 77.8623L208.793 110.399C212.774 119.364 213.108 129.657 209.461 139.29L196.516 172.82C193.199 181.785 185.9 189.756 176.611 193.74L144.091 208.346C139.446 211.002 134.468 212 129.159 212Z" fill="white"/>
<path d="M62.7457 83.6894L50.1573 116.875C47.1788 125.178 47.1788 134.14 50.8196 142.104L65.395 174.63C69.0399 182.595 75.6632 188.902 83.6113 191.891L117.065 204.835C125.346 207.824 134.29 207.824 142.242 204.171L174.7 189.57C182.648 185.917 188.943 179.28 191.921 171.312L204.843 137.788C207.821 129.49 207.821 120.532 204.18 112.567L189.609 80.0369C185.96 72.0724 179.337 65.7651 171.385 62.7764L137.935 50.1618C129.654 47.1771 120.71 47.1771 112.762 50.8255L80.2996 65.0974C72.0184 68.7498 66.0574 75.391 62.7457 83.6894Z" fill="#DC2626"/>
<path d="M66 98.58L156.09 66L189 156.09L98.9104 189L66 98.576V98.58Z" fill="#991B1B"/>
<path d="M72 88.6184L166.386 72L183 166.39L88.6218 183L72.004 88.6144L72 88.6184Z" fill="white"/>
</svg>

<svg xmlns="http://www.w3.org/2000/svg" width="256" height="256" fill="none"><rect width="256" height="256" fill="#DC2626" rx="60"/><path fill="#fff" d="M129.159 212c-4.644 0-9.289-.664-13.937-2.326l-33.514-12.948c-8.96-3.32-16.921-10.623-20.902-19.918l-14.598-32.541c-3.985-8.965-4.315-19.258-.667-28.887l12.61-33.2c3.981-9.963 10.95-17.266 20.24-21.25l32.186-14.606C115.222 44.328 120.2 43 125.842 43c4.645 0 9.289.664 13.934 2.326l33.513 12.614c9.289 3.32 16.926 10.623 20.907 19.922l14.597 32.537c3.981 8.965 4.315 19.258.668 28.891l-12.945 33.53c-3.317 8.965-10.616 16.936-19.905 20.92l-32.52 14.606c-4.645 2.656-9.623 3.654-14.932 3.654"/><path fill="#DC2626" d="m62.746 83.69-12.589 33.185c-2.978 8.303-2.978 17.265.663 25.229l14.575 32.526c3.645 7.965 10.268 14.272 18.216 17.261l33.454 12.944c8.281 2.989 17.225 2.989 25.177-.664L174.7 189.57c7.948-3.653 14.243-10.29 17.221-18.258l12.922-33.524c2.978-8.298 2.978-17.256-.663-25.221l-14.571-32.53c-3.649-7.965-10.272-14.272-18.224-17.26l-33.45-12.615c-8.281-2.985-17.225-2.985-25.173.663L80.3 65.098C72.018 68.75 66.057 75.391 62.746 83.69"/><path fill="#991B1B" d="M66 98.58 156.09 66 189 156.09 98.91 189 66 98.576z"/><path fill="#fff" d="M72 88.618 166.386 72 183 166.39 88.622 183 72.004 88.614z"/></svg>
